X: 105
T: Laofu shaoqi
%%abc-version 2.0
%%abcx-abcm2ps-target-version 5.9.1 (29 Sep 2008)
%%abc-creator hum2abc beta
%%abcx-conversion-date 2013/10/02 07:52:29
%%abc-edited-by Helmut Schaffrath
%%humdrum-veritas 3821195498
%%humdrum-veritas-data 955160278
%%continueall 1
%%barnumbers 0
L: 1/8
M: 2/4
K: Bb
b g/ b/f2 [I:setbarnb 1]| 
f b g f | 
b g/ f/ d c | 
B2G F | 
b f b g | 
f f d c/ B/ | 
c G F B | 
F4 |]  



